X:1
T:Lisnagun
L:1/8
Q:1/4=160
M:6/8
K:G
 G z G4 |F z F4 | E z E4 | D z D4 |
 G z G4 | F z F4 | E z E4 | D z2 G z2 ::
 z6 | z6 | z6 | z6 |
 z6 |z6 | z6 | z6 :|
 G z D4 | A z d4 | A z d4 | A z z G z z |]
